svgs/sharp-solid/ice-skate.svg

<svg xmlns="http://www.w3.org/2000/svg" viewBox="0 0 576 512"><!--! Font Awesome Pro 6.6.0 by @fontawesome - https://fontawesome.com License - https://fontawesome.com/license (Commercial License) Copyright 2024 Fonticons, Inc. --><path d="M512 240l0 144L32 384 32 96 256 32l0-32 64 0 0 96-48 0-16 0 0 32 16 0 48 0 0 32-48 0-16 0 0 32 16 0 48 0 192 48zm64 168l0 24 0 56 0 24-24 0-144 0-288 0-96 0L0 512l0-48 24 0 72 0 0-24 0-24 48 0 0 24 0 24 240 0 0-24 0-24 48 0 0 24 0 24 96 0 0-32 0-24 48 0z"/></svg>

<svg xmlns="http://www.w3.org/2000/svg" viewBox="0 0 576 512"><!--! Font Awesome Pro 6.4.0 by @fontawesome - https://fontawesome.com License - https://fontawesome.com/license (Commercial License) Copyright 2023 Fonticons, Inc. --><path d="M512 240V384H32V96L256 32V0h64V96H272 256v32h16 48v32H272 256v32h16 48l192 48zm64 168v24 56 24H552 408 120 24 0V464H24 96V440 416h48v24 24H384V440 416h48v24 24h96V432 408h48z"/></svg>
